X:1
T:Butler, LM
T:Anonymous, 1872
T:Butler, LM
T:Public Domain
C:Anonymous, 1872
Z:Public Domain
%%score ( 1 2 ) ( 3 4 )
L:1/8
M:3/4
K:D
V:1 treble 
V:2 treble 
V:3 bass 
V:4 bass 
V:1
 [Fd][Fd] [Fd] | [Fd]3 [FA] [GB][FA] | [FA]3 [DF] [CG][DA] | [DB][DA] [CG]2 [DF]2 | %4
 [CE]3 [DF] [DF]D | [DA]3 [DF] [CG][DA] | [DB]3 [Be] [Be][Be] | [Af][Ge] [Fd]2 [Ec]2 | [Fd]3 |] %9
V:2
 x3 | x6 | x6 | x6 | x5 D | x6 | x6 | x6 | x3 |] %9
V:3
 [D,A,][D,A,] [D,A,] | [D,A,]3 [D,D] [D,D][D,D] | [D,D]3 [D,A,] [E,A,][F,A,] | %3
 [G,A,][F,A,] [E,A,]2 [D,A,]2 | [A,,A,]3 [D,A,] [D,A,][D,F,] | [D,F,]3 [D,A,] [E,A,][F,A,] | %6
 G,3 [G,B,] [G,B,][G,B,] | [F,D][G,B,] A,2 [A,,A,]2 | [D,A,]3 |] %9
V:4
 x3 | x6 | x6 | x6 | x6 | x6 | G,3 x3 | x2 A,2 x2 | x3 |] %9

